X:1094
T:Spinning Wheel Song
C:Joe Buchanan's Scottish Tome - Page 625.2
I:625 2
Z:Carl Allison
R:Folk
L:1/4
M:3/4
K:Eb
"Eb"E G>B, | E G>B, | E G B | "Bb7"B/ A/-A2 | D F>B, | D F>B, | D F A | "Eb"A/ G/- G2 |
B G>A | B>B B | "G#"c A A | "Eb"B/ G/- G2 | "G#"A>B A | "Eb"G>F E | "Bb7"F B F | "Eb"G/ E/- E2 |
G>G G | E>E E | B, E G | "Bb7"B/ A/- A2 | F>F F | B,>B, B, | B, D F | "Eb"A/ G/- G2 |
B>B B | "Eb"G>A B | "G#"c A A | "Eb"B/ G/- G2 | "Bb7"A>A A | "Eb"G>F E | "Bb7"F B F | "Eb"G/ E/- E2 |]

